img/footer/2.svg

<svg width="1920" height="411" viewBox="0 0 1920 411" fill="none" xmlns="http://www.w3.org/2000/svg">
<path d="M2259.5 48.9162C2254.23 48.9901 2248.98 49.8164 2242.96 49.9009C2139.87 51.3476 2139.14 -0.571523 2036.81 0.864599C1933.72 2.31128 1934.45 54.2304 1832.11 55.6665C1729.03 57.1132 1728.3 5.19408 1625.97 6.63021C1522.88 8.07689 1523.61 59.996 1421.27 61.4321C1318.19 62.8788 1317.46 10.9597 1215.13 12.3958C1112.04 13.8425 1112.77 65.7616 1010.43 67.1977C907.347 68.6444 906.619 16.7253 804.285 18.1614C701.198 19.6081 701.927 71.5272 599.593 72.9634C496.506 74.41 495.778 22.4909 392.691 23.9376C290.357 25.3737 291.086 77.2928 188 78.7395C85.6657 80.1756 84.9371 28.2565 -18.1493 29.7032C-120.483 31.1393 -119.755 83.0585 -222.841 84.5051C-286.047 85.3922 -310.401 66.1663 -343.72 51.5819L-353 547.5L962.5 547.5L2242.96 561.5L2259.5 48.9162Z" fill="url(#paint0_linear)"/>
<defs>
<linearGradient id="paint0_linear" x1="957.41" y1="16.0148" x2="948.5" y2="650.5" gradientUnits="userSpaceOnUse">
<stop stop-color="#1A7F72"/>
<stop offset="1" stop-color="#7ADBAE"/>
</linearGradient>
</defs>
</svg>

<svg width="1920" height="411" xmlns="http://www.w3.org/2000/svg"><defs><linearGradient y2="1.159" x2=".498" y1=".027" x1=".502" id="a"><stop stop-color="#1A7F72"/><stop stop-color="#7ADBAE" offset="1"/></linearGradient></defs><path fill="none" d="M-1-1h421v538H-1z"/><path opacity=".2" fill="url(#a)" d="M2259.5 48.916c-5.27.074-10.52.9-16.54.985C2139.87 51.348 2139.14-.572 2036.81.865c-103.09 1.446-102.36 53.365-204.7 54.801-103.08 1.447-103.81-50.472-206.14-49.036-103.09 1.447-102.36 53.366-204.7 54.802-103.08 1.447-103.81-50.472-206.14-49.036-103.09 1.447-102.36 53.366-204.7 54.802-103.083 1.446-103.811-50.473-206.145-49.037-103.087 1.447-102.358 53.366-204.692 54.802-103.087 1.447-103.815-50.472-206.902-49.025C290.357 25.374 291.086 77.293 188 78.74 85.666 80.176 84.937 28.257-18.15 29.703-120.482 31.14-119.754 83.06-222.84 84.505c-63.206.887-87.56-18.339-120.879-32.923L-353 547.5H962.5l1280.46 14 16.54-512.584z"/></svg>
